X: 152
T: Mechol Halachat
C: Ami Gilad 1963
O: Israel 
M:2/4
L:1/8
Q:1/4=96
K:Am
  a2 a2                |^f/e/d/f/ e2         | f/e/ f2 g         | aa ^f/e/d    |\
  a2 a2                |^f/e/d/f/ e2         | f/e/ f2 g         | a2 a2        |
|:"Dm" d/e/f/f/ "Am" ee|"Dm" d/d/d fa        |"C" gg "Dm" f/e/d  |"Am" e4       |\
  "Dm" d/e/f/f/ "Am" ee|"Dm" d/d/d "Am" ec   |"Dm" dd "Em" B/A/G |"Am" A4       :|
  "Am" a2 a2           |"D" ^f/e/d/f/ "Am" e2|"Dm" f/e/ f2 g     |"Am" aa ^f/e/d|\
  "Am" a2 a2           |"D" ^f/e/d/f/ "Am" e2|"Dm"  f/e/ f2 g    |"Am" a4       |



